source/images/bg-bisb.svg

<svg width="60" height="58" viewBox="0 0 60 58" fill="none" xmlns="http://www.w3.org/2000/svg">
<path d="M38.5055 24.2984C48.9029 24.2984 56.5917 31.9817 56.5917 41.9636V57.1986L59.1275 57.1899L59.1481 32.8944C59.1762 30.1757 58.6614 27.4787 57.634 24.9614C56.6066 22.4441 55.0872 20.1572 53.1648 18.2345C51.2423 16.3119 48.9555 14.7922 46.4383 13.7645C43.9212 12.7368 41.2242 12.2218 38.5055 12.2496V24.2984Z" fill="#3634E3"/>
<path d="M38.0152 0.000543951V12.0471C27.6166 12.0471 19.9703 19.7305 19.9703 29.7135V34.7381C19.544 34.5415 19.08 34.4396 18.6105 34.4396C18.141 34.4396 17.6771 34.5415 17.2507 34.7381L17.2921 20.7269C17.2718 17.9997 17.794 15.2957 18.8282 12.7721C19.8624 10.2485 21.388 7.95578 23.3164 6.02715C25.2447 4.09852 27.5372 2.57253 30.0606 1.53791C32.584 0.503296 35.288 -0.0192869 38.0152 0.000543951" fill="#3634E3"/>
<path d="M0 34.439V57.254H6.40513C11.3547 57.254 13.9492 53.8948 13.9492 50.5714C13.9492 47.8399 12.4687 45.8851 9.5979 44.7472C10.375 44.2594 11.0146 43.5811 11.4561 42.7768C11.8976 41.9724 12.1263 41.0687 12.1206 40.1512C12.1206 36.5766 9.45974 34.4401 5.00944 34.4401L0 34.439ZM5.43914 37.214C7.78558 37.214 9.18127 38.3138 9.18127 40.1512C9.19008 40.7013 9.06328 41.2451 8.81209 41.7346C8.56089 42.224 8.19303 42.6441 7.74098 42.9578C6.60049 43.5739 5.3064 43.8477 4.01409 43.7464H2.83923V37.2195L5.43914 37.214ZM4.04562 46.5171C5.73774 46.3809 7.43776 46.6544 9.00176 47.3145C9.69809 47.6722 10.2629 48.2417 10.615 48.9409C10.9671 49.6401 11.0882 50.433 10.961 51.2054C10.8338 51.9779 10.4647 52.69 9.90702 53.2394C9.34929 53.7887 8.63164 54.1469 7.85737 54.2625L7.11003 54.3342L5.22048 54.4702H2.83923V46.516L4.04562 46.5171Z" fill="#3634E3"/>
<path d="M24.5047 44.4524C24.5047 47.3471 26.3638 48.3849 29.7415 50.2494L30.3528 50.5932C30.7138 50.7949 31.0152 51.0883 31.2267 51.4438C31.4381 51.7992 31.552 52.2041 31.5571 52.6176C31.5106 53.298 31.198 53.9327 30.687 54.3843C30.1759 54.8359 29.5076 55.068 28.8266 55.0304C28.1999 54.9884 27.5893 54.8129 27.036 54.5155C26.4827 54.2181 25.9994 53.8058 25.6186 53.3062L25.3924 53.0516L23.6736 55.0097L23.8248 55.2132C24.4336 55.9818 25.2087 56.6025 26.0917 57.0286C26.9748 57.4548 27.9429 57.6754 28.9234 57.6738C29.6091 57.6879 30.2907 57.5648 30.9281 57.3119C31.5656 57.059 32.1461 56.6813 32.6356 56.201C33.1251 55.7207 33.5138 55.1475 33.7788 54.515C34.0438 53.8824 34.1797 53.2033 34.1787 52.5175C34.1787 49.6946 32.3523 48.6525 29.3183 46.9261L28.1446 46.2527C27.8174 46.0434 27.5454 45.7583 27.3517 45.4217C27.158 45.085 27.0482 44.7066 27.0317 44.3186C27.0489 44.0519 27.1189 43.7914 27.2375 43.552C27.3562 43.3126 27.5212 43.0991 27.723 42.924C27.9247 42.7488 28.1593 42.6155 28.4129 42.5316C28.6666 42.4478 28.9344 42.4151 29.2008 42.4355C29.7917 42.4542 30.3721 42.5961 30.9048 42.8522C31.4376 43.1083 31.911 43.4729 32.2946 43.9226L32.5122 44.1402L34.3049 42.3115L34.0874 42.094C33.4923 41.4059 32.7633 40.8463 31.9449 40.4493C31.1265 40.0522 30.2357 39.826 29.327 39.7845C28.7007 39.7593 28.0757 39.8615 27.49 40.0849C26.9042 40.3083 26.3699 40.6482 25.9194 41.0841C25.4689 41.52 25.1115 42.0427 24.8689 42.6208C24.6262 43.1988 24.5035 43.8201 24.5079 44.4469" fill="#3634E3"/>
<path d="M38.5057 34.439V57.254H44.9043C49.8637 57.254 52.4473 53.8948 52.4473 50.5714C52.4473 47.8399 50.9755 45.8851 48.1058 44.7472C48.8822 44.259 49.5211 43.5806 49.9618 42.7762C50.4026 41.9719 50.6305 41.0683 50.6241 40.1512C50.6241 36.5766 47.9655 34.4401 43.5108 34.4401L38.5057 34.439ZM43.9449 37.214C46.2859 37.214 47.6892 38.3138 47.6892 40.1512C47.6974 40.7012 47.5704 41.2448 47.3193 41.7342C47.0681 42.2236 46.7005 42.6437 46.2489 42.9578C45.1067 43.5735 43.8113 43.8473 42.5176 43.7464H41.3406V37.2195L43.9449 37.214ZM42.5492 46.5171C44.2423 46.3813 45.9434 46.6548 47.5086 47.3145C48.205 47.6725 48.7698 48.2422 49.1217 48.9416C49.4736 49.6411 49.5945 50.4342 49.4669 51.2067C49.3393 51.9792 48.9698 52.6913 48.4116 53.2405C47.8535 53.7896 47.1354 54.1474 46.3609 54.2625L45.6158 54.3342L43.723 54.4702H41.3417V46.516L42.5492 46.5171Z" fill="#3634E3"/>
<path d="M20.3969 37.685C20.3969 37.3315 20.292 36.986 20.0957 36.692C19.8993 36.3981 19.6201 36.169 19.2935 36.0338C18.967 35.8985 18.6076 35.8631 18.2609 35.932C17.9142 36.001 17.5957 36.1712 17.3458 36.4212C17.0958 36.6711 16.9256 36.9896 16.8566 37.3363C16.7876 37.683 16.823 38.0424 16.9583 38.369C17.0936 38.6956 17.3227 38.9747 17.6166 39.1711C17.9105 39.3675 18.2561 39.4723 18.6096 39.4723C19.0836 39.4723 19.5382 39.284 19.8734 38.9488C20.2086 38.6136 20.3969 38.159 20.3969 37.685Z" fill="#3634E3"/>
<path d="M19.9888 40.6244L19.9692 57.2529H17.2268C17.2562 56.8352 17.2681 46.2593 17.2681 45.8307V40.6374C17.6885 40.8304 18.1458 40.9295 18.6083 40.9279C19.0855 40.9271 19.5569 40.8228 19.9899 40.6222" fill="#3634E3"/>
</svg>

<svg width="60" height="58" fill="none" xmlns="http://www.w3.org/2000/svg"><path d="M38.505 24.298c10.398 0 18.087 7.684 18.087 17.666v15.235l2.535-.01.021-24.295A20.435 20.435 0 0038.505 12.25v12.048zM38.015 0v12.047c-10.398 0-18.045 7.683-18.045 17.666v5.025a3.247 3.247 0 00-2.72 0l.042-14.011A20.574 20.574 0 0138.015 0M0 34.439v22.815h6.405c4.95 0 7.544-3.36 7.544-6.683 0-2.731-1.48-4.686-4.351-5.824a5.387 5.387 0 002.523-4.596c0-3.574-2.661-5.71-7.112-5.71L0 34.438zm5.44 2.775c2.346 0 3.741 1.1 3.741 2.937a3.35 3.35 0 01-1.44 2.807 6.734 6.734 0 01-3.727.788H2.84V37.22l2.6-.005zm-1.394 9.303a10.566 10.566 0 014.956.797 3.698 3.698 0 01-1.145 6.949l-.747.071-1.89.136H2.84v-7.954l1.206.001zm20.459-2.065c0 2.895 1.859 3.933 5.236 5.797l.612.344a2.352 2.352 0 011.204 2.025 2.594 2.594 0 01-2.73 2.412 4.404 4.404 0 01-3.208-1.724l-.227-.254-1.718 1.958.15.203a6.49 6.49 0 005.1 2.46 5.149 5.149 0 005.255-5.156c0-2.822-1.827-3.864-4.86-5.59l-1.174-.674a2.419 2.419 0 01-1.113-1.934 2.02 2.02 0 012.169-1.884 4.242 4.242 0 013.094 1.488l.217.217 1.793-1.828-.218-.218a6.697 6.697 0 00-4.76-2.31 4.632 4.632 0 00-4.82 4.663" fill="#3634E3"/><path d="M38.506 34.439v22.815h6.398c4.96 0 7.543-3.36 7.543-6.683 0-2.731-1.472-4.686-4.341-5.824a5.384 5.384 0 002.518-4.596c0-3.574-2.659-5.71-7.113-5.71l-5.005-.002zm5.439 2.775c2.34 0 3.744 1.1 3.744 2.937a3.358 3.358 0 01-1.44 2.807 6.757 6.757 0 01-3.731.788H41.34V37.22l2.604-.005zm-1.396 9.303a10.59 10.59 0 014.96.797 3.699 3.699 0 01-1.148 6.949l-.745.071-1.893.136h-2.381v-7.954l1.207.001zm-22.152-8.832a1.788 1.788 0 10-3.577 0 1.788 1.788 0 003.577 0zm-.408 2.939l-.02 16.629h-2.742c.03-.418.041-10.994.041-11.422v-5.194c.42.193.878.292 1.34.29a3.3 3.3 0 001.382-.305" fill="#3634E3"/></svg>
